source/img/inst.svg

<svg width="80" height="80" viewBox="0 0 80 80" fill="none" xmlns="http://www.w3.org/2000/svg">
<g clip-path="url(#clip0_3_660)">
<path d="M40 7.20312C50.6875 7.20312 51.9531 7.25 56.1563 7.4375C60.0625 7.60937 62.1719 8.26563 63.5781 8.8125C65.4375 9.53125 66.7813 10.4063 68.1719 11.7969C69.5781 13.2031 70.4375 14.5313 71.1563 16.3906C71.7031 17.7969 72.3594 19.9219 72.5313 23.8125C72.7188 28.0312 72.7656 29.2969 72.7656 39.9688C72.7656 50.6563 72.7188 51.9219 72.5313 56.125C72.3594 60.0313 71.7031 62.1406 71.1563 63.5469C70.4375 65.4063 69.5625 66.75 68.1719 68.1406C66.7656 69.5469 65.4375 70.4063 63.5781 71.125C62.1719 71.6719 60.0469 72.3281 56.1563 72.5C51.9375 72.6875 50.6719 72.7344 40 72.7344C29.3125 72.7344 28.0469 72.6875 23.8438 72.5C19.9375 72.3281 17.8281 71.6719 16.4219 71.125C14.5625 70.4063 13.2188 69.5313 11.8281 68.1406C10.4219 66.7344 9.5625 65.4063 8.84375 63.5469C8.29688 62.1406 7.64063 60.0156 7.46875 56.125C7.28125 51.9063 7.23438 50.6406 7.23438 39.9688C7.23438 29.2813 7.28125 28.0156 7.46875 23.8125C7.64063 19.9062 8.29688 17.7969 8.84375 16.3906C9.5625 14.5313 10.4375 13.1875 11.8281 11.7969C13.2344 10.3906 14.5625 9.53125 16.4219 8.8125C17.8281 8.26563 19.9531 7.60937 23.8438 7.4375C28.0469 7.25 29.3125 7.20312 40 7.20312ZM40 0C29.1406 0 27.7813 0.046875 23.5156 0.234375C19.2656 0.421875 16.3438 1.10937 13.8125 2.09375C11.1719 3.125 8.9375 4.48438 6.71875 6.71875C4.48438 8.9375 3.125 11.1719 2.09375 13.7969C1.10938 16.3438 0.421875 19.25 0.234375 23.5C0.046875 27.7812 0 29.1406 0 40C0 50.8594 0.046875 52.2188 0.234375 56.4844C0.421875 60.7344 1.10938 63.6563 2.09375 66.1875C3.125 68.8281 4.48438 71.0625 6.71875 73.2812C8.9375 75.5 11.1719 76.875 13.7969 77.8906C16.3438 78.875 19.25 79.5625 23.5 79.75C27.7656 79.9375 29.125 79.9844 39.9844 79.9844C50.8438 79.9844 52.2031 79.9375 56.4688 79.75C60.7188 79.5625 63.6406 78.875 66.1719 77.8906C68.7969 76.875 71.0313 75.5 73.25 73.2812C75.4688 71.0625 76.8438 68.8281 77.8594 66.2031C78.8438 63.6563 79.5313 60.75 79.7188 56.5C79.9063 52.2344 79.9531 50.875 79.9531 40.0156C79.9531 29.1563 79.9063 27.7969 79.7188 23.5313C79.5313 19.2813 78.8438 16.3594 77.8594 13.8281C76.875 11.1719 75.5156 8.9375 73.2813 6.71875C71.0625 4.5 68.8281 3.125 66.2031 2.10938C63.6563 1.125 60.75 0.4375 56.5 0.25C52.2188 0.046875 50.8594 0 40 0Z" fill="#CECFDB"/>
<path d="M40 19.4531C28.6562 19.4531 19.4531 28.6562 19.4531 40C19.4531 51.3437 28.6562 60.5469 40 60.5469C51.3437 60.5469 60.5469 51.3437 60.5469 40C60.5469 28.6562 51.3437 19.4531 40 19.4531ZM40 53.3281C32.6406 53.3281 26.6719 47.3594 26.6719 40C26.6719 32.6406 32.6406 26.6719 40 26.6719C47.3594 26.6719 53.3281 32.6406 53.3281 40C53.3281 47.3594 47.3594 53.3281 40 53.3281Z" fill="#CECFDB"/>
<path d="M66.1562 18.6405C66.1562 21.2968 64 23.4374 61.3594 23.4374C58.7031 23.4374 56.5625 21.2811 56.5625 18.6405C56.5625 15.9843 58.7188 13.8436 61.3594 13.8436C64 13.8436 66.1562 15.9999 66.1562 18.6405Z" fill="#CECFDB"/>
</g>
<defs>
<clipPath id="clip0_3_660">
<rect width="80" height="80" fill="white"/>
</clipPath>
</defs>
</svg>

<svg width="80" height="80" fill="none" xmlns="http://www.w3.org/2000/svg"><g clip-path="url(#a)" fill="#CECFDB"><path d="M40 7.203c10.688 0 11.953.047 16.156.234 3.907.172 6.016.829 7.422 1.375 1.86.72 3.203 1.594 4.594 2.985 1.406 1.406 2.266 2.734 2.984 4.594.547 1.406 1.203 3.53 1.375 7.422.188 4.218.235 5.484.235 16.156 0 10.687-.047 11.953-.235 16.156-.172 3.906-.828 6.016-1.375 7.422-.719 1.86-1.594 3.203-2.984 4.594-1.406 1.406-2.734 2.265-4.594 2.984-1.406.547-3.531 1.203-7.422 1.375-4.218.188-5.484.234-16.156.234-10.688 0-11.953-.046-16.156-.234-3.907-.172-6.016-.828-7.422-1.375-1.86-.719-3.203-1.594-4.594-2.984-1.406-1.407-2.265-2.735-2.984-4.594-.547-1.406-1.203-3.531-1.375-7.422-.188-4.219-.235-5.484-.235-16.156 0-10.688.047-11.953.235-16.157.172-3.906.828-6.015 1.375-7.421.719-1.86 1.594-3.203 2.984-4.594 1.406-1.406 2.735-2.266 4.594-2.985 1.406-.546 3.531-1.203 7.422-1.374 4.203-.188 5.468-.235 16.156-.235ZM40 0C29.14 0 27.781.047 23.516.234c-4.25.188-7.172.875-9.703 1.86-2.641 1.031-4.876 2.39-7.094 4.625-2.235 2.218-3.594 4.453-4.625 7.078C1.109 16.344.422 19.25.234 23.5.047 27.781 0 29.14 0 40s.047 12.219.234 16.484c.188 4.25.875 7.172 1.86 9.703 1.031 2.641 2.39 4.876 4.625 7.094 2.218 2.219 4.453 3.594 7.078 4.61 2.547.984 5.453 1.671 9.703 1.859 4.266.188 5.625.234 16.484.234 10.86 0 12.22-.046 16.485-.234 4.25-.188 7.172-.875 9.703-1.86 2.625-1.015 4.86-2.39 7.078-4.609 2.219-2.219 3.594-4.453 4.61-7.078.984-2.547 1.671-5.453 1.859-9.703.187-4.266.234-5.625.234-16.484 0-10.86-.047-12.22-.234-16.485-.188-4.25-.875-7.172-1.86-9.703-.984-2.656-2.343-4.89-4.578-7.11-2.219-2.218-4.453-3.593-7.078-4.609C63.656 1.125 60.75.438 56.5.25 52.219.047 50.86 0 40 0Z"/><path d="M40 19.453c-11.344 0-20.547 9.203-20.547 20.547 0 11.344 9.203 20.547 20.547 20.547 11.344 0 20.547-9.203 20.547-20.547 0-11.344-9.203-20.547-20.547-20.547Zm0 33.875c-7.36 0-13.328-5.969-13.328-13.328 0-7.36 5.969-13.328 13.328-13.328 7.36 0 13.328 5.969 13.328 13.328 0 7.36-5.969 13.328-13.328 13.328ZM66.156 18.64a4.798 4.798 0 0 1-9.594 0 4.798 4.798 0 0 1 4.797-4.796 4.808 4.808 0 0 1 4.797 4.796Z"/></g><defs><clipPath id="a"><path fill="#fff" d="M0 0h80v80H0z"/></clipPath></defs></svg>
